X:1
T:Title
%%score ( 1 2 ) { 3 | 4 }
L:1/8
Q:1/4=108
M:4/4
K:Eb
V:1 treble nm="Grand Piano, Staff 1"
V:2 treble 
V:3 bass nm="Grand Piano, Geronimo"
V:4 bass 
V:1
 [GB]2 [Ee]2 [Fd]2 [Ge]2 | [FB]2 [EA]2 [EG]2 [FB]2 | [FB]2 [Ee]2 [Fd]2 [Ge]2 | %3
w: By~Arranged~from~Charles~Villiers~Stanford * * *|||
 [FB]2 [FA]2 [EG]2 [FB]2- | [FB]4 [EB]2 [Ec]2 | [DB]2 [EA]2 [EG]2 [CF]2 | %6
w: |||
 [CE]2 [=B,D]2 [B,D]2 [CE]2 | [DF]2 [EG]2 [Gc]2 [GB]2 | [_G=A]2 [=GB]6 | [DF]2 [DG]2 [F=A]2 [FB]2 | %10
w: ||||
 [Ge]2 [Fd]2 [Fc]2 [Fd]2 | [Bf]2 [Be]2 [Ac]2 z G | [FB]2 [GB]6- | [GB]2 z2 z4 |] %14
w: ||||
V:2
 x8 | x8 | x8 | x8 | x8 | x8 | x8 | x8 | x8 | x8 | x8 | z4 z2 A2 | x8 | x8 |] %14
V:3
 B,2 B,2 A,2 B,2 | B,2[K:treble] C2 B,C D2 | D2[K:bass] B,2 A,2 B,2 | B,2 C2[K:treble] C2 D2- | %4
 D4 G,2 A,2 | F,2 A,2 B,2 A,2 | G,2 G,2 G,2 G,2 | B,2 B,2[K:treble] C2 D2 | D2 D6 | %9
 B,2[K:bass] B,2 C2 B,2 | B,2 B,2 =A,2 B,2 | C2 E2 E2 FE | D2 C6- | C2 z2 z4 |] %14
V:4
 E,2 G,2 F,2 E,2 | D,2 C,D, E,2 B,,2 | B,A, G,2 F,2 E,2 | D,2 F,2 C,2 B,,2- | B,,4 E,2 A,,2 | %5
 B,,2 C,2 E,2 F,2 | C,2 G,,2 G,,2 C,2 | B,,2 E,2 C,2 D,2 | D,2 G,6 | z2 G,2 F,2 D,2 | %10
 C,2 F,2 F,2 z2 | A,2 G,2 A,2 F,2 | B,2 E,6- | E,2 z2 z4 |] %14

